docs/images/icons/question.svg

<svg width="24.000000" height="24.000000" viewBox="0 0 24 24" fill="none" xmlns="http://www.w3.org/2000/svg" xmlns:xlink="http://www.w3.org/1999/xlink">
	<defs/>
	<path id="Vector" d="M12 22C6.47705 22 2 17.5229 2 12C2 6.47699 6.47705 2 12 2C17.5229 2 22 6.47699 22 12C22 17.5229 17.5229 22 12 22ZM12 20C14.1216 20 16.1567 19.1571 17.6567 17.6569C19.1572 16.1566 20 14.1217 20 12C20 9.8783 19.1572 7.84344 17.6567 6.34314C16.1567 4.84283 14.1216 4 12 4C9.87842 4 7.84326 4.84283 6.34326 6.34314C4.84277 7.84344 4 9.8783 4 12C4 14.1217 4.84277 16.1566 6.34326 17.6569C7.84326 19.1571 9.87842 20 12 20ZM11 15L13 15L13 17L11 17L11 15ZM11 7L13 7L13 13L11 13L11 7Z" fill="#BDBDC0" fill-opacity="1.000000" fill-rule="nonzero"/>
</svg>

<svg width="24" height="24" fill="none" xmlns="http://www.w3.org/2000/svg"><path d="M12 22C6.477 22 2 17.523 2 12S6.477 2 12 2s10 4.477 10 10-4.477 10-10 10Zm0-2a8 8 0 1 0 0-16 8 8 0 0 0 0 16Zm-1-5h2v2h-2v-2Zm0-8h2v6h-2V7Z" fill="#BDBDC0"/></svg>
